assets/images/svg/svg-menu-mint.svg

<svg width="30" height="30" viewBox="0 0 30 30" fill="none" xmlns="http://www.w3.org/2000/svg">
<path d="M17.8125 5H12.1875C8.21002 5 6.22129 5 4.98564 6.25526C3.75 7.51051 3.75 9.53082 3.75 13.5714V16.4286C3.75 20.4692 3.75 22.4895 4.98564 23.7447C6.22129 25 8.21002 25 12.1875 25H17.8125C21.79 25 23.7787 25 25.0144 23.7447C26.25 22.4895 26.25 20.4692 26.25 16.4286V13.5714C26.25 9.53082 26.25 7.51051 25.0144 6.25526C23.7787 5 21.79 5 17.8125 5Z" stroke="white"/>
<path d="M8.75 10H12.5" stroke="white" stroke-linecap="round"/>
<path d="M18.75 18V17C18.75 16.0572 18.75 15.5858 19.0429 15.2929C19.3358 15 19.8072 15 20.75 15H24.25C25.1928 15 25.6642 15 25.9571 15.2929C26.25 15.5858 26.25 16.0572 26.25 17V18C26.25 18.9428 26.25 19.4142 25.9571 19.7071C25.6642 20 25.1928 20 24.25 20H20.75C19.8072 20 19.3358 20 19.0429 19.7071C18.75 19.4142 18.75 18.9428 18.75 18Z" stroke="white"/>
</svg>

<svg width="30" height="30" fill="none" xmlns="http://www.w3.org/2000/svg">
  <path d="M17.813 5h-5.625C8.21 5 6.22 5 4.986 6.255 3.75 7.511 3.75 9.531 3.75 13.571v2.858c0 4.04 0 6.06 1.236 7.316C6.22 25 8.21 25 12.188 25h5.624c3.978 0 5.967 0 7.202-1.255 1.236-1.256 1.236-3.276 1.236-7.316V13.57c0-4.04 0-6.06-1.236-7.316C23.78 5 21.79 5 17.813 5Z" stroke="#fff"/>
  <path d="M8.75 10h3.75" stroke="#fff" stroke-linecap="round"/>
  <path d="M18.75 18v-1c0-.943 0-1.414.293-1.707.293-.293.764-.293 1.707-.293h3.5c.943 0 1.414 0 1.707.293.293.293.293.764.293 1.707v1c0 .943 0 1.414-.293 1.707-.293.293-.764.293-1.707.293h-3.5c-.943 0-1.414 0-1.707-.293-.293-.293-.293-.764-.293-1.707Z" stroke="#fff"/>
</svg>
